X:1
T:A Way Up On Clinch Mountain
C:Scottish - 17th century - unknown
M:3/4    %(3/4, 4/4, 6/8)
L:1/4    %(1/8, 1/4)
V:1 clef=treble
K:Dm    %(D, C)
V:1
|F/2G/2
w:Way_
w:I'll_
w:Rye_
w:Rye_
w:Jack o'
w:Way_
w:You may
w:Oh_
V:2
|f
V:1
|"F"A F F|A, C C|C D F|"C"G/2F3/2 F/2G/2|"F"A F F|D C C/2D/2|"C"F F G|"F"F2|
w:up on Clinch Moun-tain, I wan-der a-lone;_ I'm as drunk as the dev-il, Oh,_ let me a-lone!
w:eat when I'm hun-gry, En drink when I'm dry;_ If_ whis-key don't kill me, I'll_ live till I die.
w:Whis-key, rye whis-key, I know you of old,_ You_ rob my poor pock-ets of_ sil-ver and gold.
w:Whis-key, rye whis-key, you're  no friend  to me._ You_ killed my old dad-dy, Gosh_ darn, you try me.
w:dia-monds, Jack~o- dia-monds, I know you of old,_ You_ rob my poor pock-ets, Of_ sil-ver and gold.
w:up on Clinch Moun-tain, where~the wild geese fly high,_ I'll_ think of little Al-lie en_ lay down en die.
w:boast of your know-ledge, en brag o' your sense,_ 'Twill_ all be for-got-ten a_ hun-dred years hence.
w:Lu-lu, oh Lu-lu, oh Lu-lu, my dear,_ I'd_ give the whole world if my_ Lu-lu was hyer.
V:2
|d c A|G F D/2C/2|D F G|A z f|d c A/2A/2|G F D/2C/2|D F G|F2|

